X:933
T:Xiraldilla de Teberga
T:Nun tabes ell
R:Xiraldilla
C:Tradicional
S:Msica Tradicional Asturiana, (C) Tello & Tito. Asturies, 2001.
S:http://pagina.de/MusTradAst <telloytito@asturies.org>
A:Asturies
O:Teberga
Z:DyC en Teberga
M:3/8
L:1/8
Q:3/8=66
K:F
c|c2 B|ABc|c2 B-|A2 c|B2 A|GAB|A (GF-)|F3-|F3-|F3-|F3-|F2 c|
|c2 B|ABc|c2 B-|B2 c|B2 A|GAB|A (GF-)|F3-|F3|
|F F/F/F/G/|AAG| "...y sigue"
